public/d12.svg

<svg width="80" height="86" viewBox="-8 0 96 86" fill="none" xmlns="http://www.w3.org/2000/svg">
<path d="m1 55.399v-24.579l14.746-19.76c0.4814-0.645 1.1461-1.1298 1.9074-1.391l22.346-7.6685 22.864 7.6593c0.796 0.26663 1.4878 0.77686 1.9777 1.4586l14.158 19.702v24.62c0 0.8559-0.2746 1.6893-0.7834 2.3776l-13.378 18.099c-0.3076 0.4162-0.6913 0.7663-1.1279 1.0337-0.256 0.1568-0.5303 0.2851-0.8182 0.3815l-21.606 7.2379c-0.8341 0.2794-1.737 0.2761-2.569-0.0094l-22.232-7.6292-14.658-19.096c-0.5363-0.6986-0.82701-1.5548-0.82701-2.4356z" fill="currentColor"/>
<path d="m1 30.819v24.579c0 0.8808 0.29071 1.737 0.82701 2.4356l14.658 19.096m-15.485-46.111 14.746-19.76c0.4814-0.645 1.1461-1.1298 1.9074-1.391l22.346-7.6685m-39 28.819 13.191 4.0348m25.809-32.854 22.864 7.6593c0.796 0.26663 1.4878 0.77686 1.9777 1.4586l14.158 19.702m-39-28.819v13.257m39 15.562v24.62c0 0.8559-0.2746 1.6893-0.7834 2.3776l-13.378 18.099c-0.4881 0.6603-1.1675 1.1544-1.9461 1.4152l-21.606 7.2379c-0.8341 0.2794-1.737 0.2761-2.569-0.0094l-22.232-7.6292m62.515-46.111-13.765 4.0348m-48.75 42.076 7.4559-12.104h31.544m-31.544 0-9.75-29.972m41.294 29.972 8.6029 12.68m-8.6029-12.68 9.75-29.972-25.235-19.597-25.809 19.597" stroke="#000" stroke-width="3"/>
</svg>

<svg width="80" height="86" viewBox="0 0 80 86" fill="none" xmlns="http://www.w3.org/2000/svg">
<path d="M1 55.3987V30.8194L15.7464 11.0595C16.2278 10.4145 16.8925 9.92969 17.6538 9.66846L40 2L62.864 9.65934C63.66 9.92597 64.3518 10.4362 64.8417 11.1179L79 30.8194V55.4391C79 56.295 78.7254 57.1284 78.2166 57.8167L64.8381 75.9161C64.5305 76.3323 64.1468 76.6824 63.7102 76.9498C63.4542 77.1066 63.1799 77.2349 62.892 77.3313L41.2861 84.5692C40.452 84.8486 39.5491 84.8453 38.7171 84.5598L16.4853 76.9306L1.82701 57.8343C1.29071 57.1357 1 56.2795 1 55.3987Z" fill="currentColor"/>
<path d="M1 30.8194V55.3987C1 56.2795 1.29071 57.1357 1.82701 57.8343L16.4853 76.9306M1 30.8194L15.7464 11.0595C16.2278 10.4145 16.8925 9.92969 17.6538 9.66846L40 2M1 30.8194L14.1912 34.8542M40 2L62.864 9.65934C63.66 9.92597 64.3518 10.4362 64.8417 11.1179L79 30.8194M40 2V15.2569M79 30.8194V55.4391C79 56.295 78.7254 57.1284 78.2166 57.8167L64.8381 75.9161C64.35 76.5764 63.6706 77.0705 62.892 77.3313L41.2861 84.5692C40.452 84.8486 39.5491 84.8453 38.7171 84.5598L16.4853 76.9306M79 30.8194L65.2353 34.8542M16.4853 76.9306L23.9412 64.8264M23.9412 64.8264H55.4853M23.9412 64.8264L14.1912 34.8542M55.4853 64.8264L64.0882 77.5069M55.4853 64.8264L65.2353 34.8542M65.2353 34.8542L40 15.2569M40 15.2569L14.1912 34.8542" stroke="black" stroke-width="2"/>
</svg>
